cloudphone-mobile/media/svg/media-cup.svg

<svg xmlns="http://www.w3.org/2000/svg" xmlns:xlink="http://www.w3.org/1999/xlink" preserveAspectRatio="xMidYMid" width="68" height="104" viewBox="0 0 68 104">
  <defs>
    <style>
      .cls-1{
        stroke: #c0c9d3;
        stroke-linejoin: round;
        stroke-linecap: round;
        stroke-width: 2px;
        fill: none;
        fill-rule: evenodd;
      }

    </style>
  </defs>
  <g>
    <path d="M18.000,10.000 L18.000,3.000 C18.000,2.448 18.448,2.000 19.000,2.000 L25.000,2.000 C25.552,2.000 26.000,2.448 26.000,3.000 L26.000,10.000 " class="cls-1"/>
    <path d="M10.000,14.000 L10.000,11.000 C10.000,10.448 10.448,10.000 11.000,10.000 L57.000,10.000 C57.552,10.000 58.000,10.448 58.000,11.000 L58.000,14.000 " class="cls-1"/>
    <path d="M2.000,26.000 L6.000,14.000 L62.000,14.000 L66.000,26.000 L2.000,26.000 Z" class="cls-1"/>
    <path d="M6.000,26.000 L14.000,102.000 L54.000,102.000 L62.000,26.000 " class="cls-1"/>
    <path d="M7.000,34.000 L61.000,34.000 " class="cls-1"/>
    <path d="M54.000,96.000 L14.000,96.000 " class="cls-1"/>
    <circle cx="34" cy="58" r="16" class="cls-1"/>
    <circle cx="34" cy="58" r="8" class="cls-1"/>
    <path d="M26.000,82.000 L26.000,82.000 " class="cls-1"/>
    <path d="M34.000,82.000 L34.000,82.000 " class="cls-1"/>
    <path d="M42.000,82.000 L42.000,82.000 " class="cls-1"/>
  </g>
</svg>

<svg xmlns="http://www.w3.org/2000/svg" preserveAspectRatio="xMidYMid" width="68" height="104" viewBox="0 0 68 104"><defs><style>.cls-1{stroke:#c0c9d3;stroke-linejoin:round;stroke-linecap:round;stroke-width:2px;fill:none;fill-rule:evenodd}</style></defs><path d="M18 10V3a1 1 0 0 1 1-1h6a1 1 0 0 1 1 1v7M10 14v-3a1 1 0 0 1 1-1h46a1 1 0 0 1 1 1v3M2 26l4-12h56l4 12H2zM6 26l8 76h40l8-76M7 34h54M54 96H14" class="cls-1"/><circle cx="34" cy="58" r="16" class="cls-1"/><circle cx="34" cy="58" r="8" class="cls-1"/><path d="M42 82" class="cls-1"/></svg>
